X: 21072
T: PAIN'S FIRST SET OF QUADRILLES #5
B: K\"ohler's Violin Repository, v.2, 1885 p.107 #2
F: http://www.archive.org/details/klersviolinrepos02rugg
Z: 2012 John Chambers <jc:trillian.mit.edu>
M: 2/4
L: 1/16
K: D
(ufg) |\
aba^g abc'd' | (d'c')a2 agfe | dedc defg | e2a2 A(fg^g) |\
aba^g abc'd' | =c'6 (ba) | bc'd'b afef | e4 d2 ||
uA2 |\
d2A2 fgef | d2A2 fgef | (.d3.f) (edcB) | A2G2F2A2 |\
d2A2 fgef | d2A2 fgef | (.d3.f) (edcB) | A6 ||
uA2 |\
e4 (fedc) | d4 (A2d2) | (.f3.a) (gfed) | ^d4 e2A2 |\
a2ba g2e2 | g2ag f2gf | e2e2 dcBc | e4 (d2A2) ||
A2g2f2e2 | (.f3.e) d2d2 | e2e2 (dc)Bc | defg ^gaba |\
A2g2f2e2 | (.f3.e) d2d2 | (efg^g a^abc) | e4 "_D.C."d2 |]

%%sep 2 1 500

